images/3234868.svg

<?xml version="1.0" encoding="UTF-8"?>
<svg xmlns="http://www.w3.org/2000/svg" xmlns:xlink="http://www.w3.org/1999/xlink" width="300pt" height="300pt" viewBox="0 0 300 300" version="1.1">
<defs>
<g>
<symbol overflow="visible" id="glyph0-0">
<path style="stroke:none;" d="M 0.59375 2.125 L 0.59375 -8.46875 L 6.59375 -8.46875 L 6.59375 2.125 Z M 1.265625 1.453125 L 5.9375 1.453125 L 5.9375 -7.78125 L 1.265625 -7.78125 Z M 1.265625 1.453125 "/>
</symbol>
<symbol overflow="visible" id="glyph0-1">
<path style="stroke:none;" d="M 1.171875 -8.75 L 2.765625 -8.75 L 6.65625 -1.4375 L 6.65625 -8.75 L 7.796875 -8.75 L 7.796875 0 L 6.203125 0 L 2.328125 -7.3125 L 2.328125 0 L 1.171875 0 Z M 1.171875 -8.75 "/>
</symbol>
<symbol overflow="visible" id="glyph0-2">
<path style="stroke:none;" d="M 1.171875 -8.75 L 2.359375 -8.75 L 2.359375 -5.15625 L 6.65625 -5.15625 L 6.65625 -8.75 L 7.84375 -8.75 L 7.84375 0 L 6.65625 0 L 6.65625 -4.171875 L 2.359375 -4.171875 L 2.359375 0 L 1.171875 0 Z M 1.171875 -8.75 "/>
</symbol>
<symbol overflow="visible" id="glyph0-3">
<path style="stroke:none;" d="M 1.171875 -8.75 L 6.203125 -8.75 L 6.203125 -7.75 L 2.359375 -7.75 L 2.359375 -5.171875 L 5.828125 -5.171875 L 5.828125 -4.171875 L 2.359375 -4.171875 L 2.359375 0 L 1.171875 0 Z M 1.171875 -8.75 "/>
</symbol>
</g>
</defs>
<g id="surface39293">
<rect x="0" y="0" width="300" height="300" style="fill:rgb(100%,100%,100%);fill-opacity:1;stroke:none;"/>
<path style="fill:none;stroke-width:1.2;stroke-linecap:butt;stroke-linejoin:miter;stroke:rgb(0%,0%,0%);stroke-opacity:1;stroke-miterlimit:10;" d="M 35.25 171.8125 L 48.601562 177.441406 "/>
<path style="fill:none;stroke-width:1.2;stroke-linecap:butt;stroke-linejoin:miter;stroke:rgb(0%,0%,100%);stroke-opacity:1;stroke-miterlimit:10;" d="M 48.601562 177.441406 L 61.949219 183.074219 "/>
<path style="fill:none;stroke-width:1.2;stroke-linecap:butt;stroke-linejoin:miter;stroke:rgb(0%,0%,100%);stroke-opacity:1;stroke-miterlimit:10;" d="M 61.949219 183.074219 L 63.75 197.449219 "/>
<path style="fill:none;stroke-width:1.2;stroke-linecap:butt;stroke-linejoin:miter;stroke:rgb(0%,0%,0%);stroke-opacity:1;stroke-miterlimit:10;" d="M 63.75 197.449219 L 65.546875 211.824219 "/>
<path style="fill:none;stroke-width:1.2;stroke-linecap:butt;stroke-linejoin:miter;stroke:rgb(0%,0%,100%);stroke-opacity:1;stroke-miterlimit:10;" d="M 61.949219 183.074219 L 73.5 174.328125 "/>
<path style="fill:none;stroke-width:1.2;stroke-linecap:butt;stroke-linejoin:miter;stroke:rgb(0%,0%,0%);stroke-opacity:1;stroke-miterlimit:10;" d="M 73.5 174.328125 L 85.050781 165.582031 "/>
<path style=" stroke:none;fill-rule:nonzero;fill:rgb(100%,100%,100%);fill-opacity:1;" d="M 57.949219 176.074219 L 66.949219 176.074219 L 66.949219 190.074219 L 57.949219 190.074219 Z M 57.949219 176.074219 "/>
<g style="fill:rgb(0%,0%,100%);fill-opacity:1;">
  <use xlink:href="#glyph0-1" x="57.949219" y="187.212891"/>
</g>
<path style="fill:none;stroke-width:1.2;stroke-linecap:butt;stroke-linejoin:miter;stroke:rgb(0%,0%,0%);stroke-opacity:1;stroke-miterlimit:10;" d="M 85.050781 165.582031 L 81.453125 136.828125 "/>
<path style="fill:none;stroke-width:1.2;stroke-linecap:butt;stroke-linejoin:miter;stroke:rgb(0%,0%,0%);stroke-opacity:1;stroke-miterlimit:10;" d="M 91.457031 161.859375 L 88.578125 138.855469 "/>
<path style="fill:none;stroke-width:1.2;stroke-linecap:butt;stroke-linejoin:miter;stroke:rgb(0%,0%,0%);stroke-opacity:1;stroke-miterlimit:10;" d="M 111.75 176.839844 L 85.050781 165.582031 "/>
<path style="fill:none;stroke-width:1.2;stroke-linecap:butt;stroke-linejoin:miter;stroke:rgb(0%,0%,0%);stroke-opacity:1;stroke-miterlimit:10;" d="M 81.453125 136.828125 L 104.554688 119.335938 "/>
<path style="fill:none;stroke-width:1.2;stroke-linecap:butt;stroke-linejoin:miter;stroke:rgb(0%,0%,0%);stroke-opacity:1;stroke-miterlimit:10;" d="M 104.554688 119.335938 L 131.253906 130.597656 "/>
<path style="fill:none;stroke-width:1.2;stroke-linecap:butt;stroke-linejoin:miter;stroke:rgb(0%,0%,0%);stroke-opacity:1;stroke-miterlimit:10;" d="M 104.574219 126.746094 L 125.933594 135.753906 "/>
<path style="fill:none;stroke-width:1.2;stroke-linecap:butt;stroke-linejoin:miter;stroke:rgb(0%,0%,0%);stroke-opacity:1;stroke-miterlimit:10;" d="M 131.253906 130.597656 L 134.851562 159.347656 "/>
<path style="fill:none;stroke-width:1.2;stroke-linecap:butt;stroke-linejoin:miter;stroke:rgb(0%,0%,0%);stroke-opacity:1;stroke-miterlimit:10;" d="M 131.253906 130.597656 L 154.355469 113.105469 "/>
<path style="fill:none;stroke-width:1.2;stroke-linecap:butt;stroke-linejoin:miter;stroke:rgb(0%,0%,0%);stroke-opacity:1;stroke-miterlimit:10;" d="M 134.851562 159.347656 L 111.75 176.839844 "/>
<path style="fill:none;stroke-width:1.2;stroke-linecap:butt;stroke-linejoin:miter;stroke:rgb(0%,0%,0%);stroke-opacity:1;stroke-miterlimit:10;" d="M 128.425781 155.664062 L 109.945312 169.65625 "/>
<path style="fill:none;stroke-width:1.2;stroke-linecap:butt;stroke-linejoin:miter;stroke:rgb(0%,0%,0%);stroke-opacity:1;stroke-miterlimit:10;" d="M 154.355469 113.105469 L 181.054688 124.363281 "/>
<path style="fill:none;stroke-width:1.2;stroke-linecap:butt;stroke-linejoin:miter;stroke:rgb(0%,0%,0%);stroke-opacity:1;stroke-miterlimit:10;" d="M 159.671875 107.949219 L 181.03125 116.957031 "/>
<path style="fill:none;stroke-width:1.2;stroke-linecap:butt;stroke-linejoin:miter;stroke:rgb(0%,0%,100%);stroke-opacity:1;stroke-miterlimit:10;" d="M 150.757812 84.351562 L 152.554688 98.726562 "/>
<path style="fill:none;stroke-width:1.2;stroke-linecap:butt;stroke-linejoin:miter;stroke:rgb(0%,0%,0%);stroke-opacity:1;stroke-miterlimit:10;" d="M 152.554688 98.726562 L 154.355469 113.105469 "/>
<path style="fill:none;stroke-width:1.2;stroke-linecap:butt;stroke-linejoin:miter;stroke:rgb(0%,0%,0%);stroke-opacity:1;stroke-miterlimit:10;" d="M 181.054688 124.363281 L 204.15625 106.871094 "/>
<path style="fill:none;stroke-width:1.2;stroke-linecap:butt;stroke-linejoin:miter;stroke:rgb(0%,0%,0%);stroke-opacity:1;stroke-miterlimit:10;" d="M 204.15625 106.871094 L 202.355469 92.496094 "/>
<path style="fill:none;stroke-width:1.2;stroke-linecap:butt;stroke-linejoin:miter;stroke:rgb(0%,0%,100%);stroke-opacity:1;stroke-miterlimit:10;" d="M 202.355469 92.496094 L 200.554688 78.117188 "/>
<path style="fill:none;stroke-width:1.2;stroke-linecap:butt;stroke-linejoin:miter;stroke:rgb(0%,0%,0%);stroke-opacity:1;stroke-miterlimit:10;" d="M 197.03125 104.84375 L 195.589844 93.34375 "/>
<path style="fill:none;stroke-width:1.2;stroke-linecap:butt;stroke-linejoin:miter;stroke:rgb(0%,0%,100%);stroke-opacity:1;stroke-miterlimit:10;" d="M 195.589844 93.34375 L 194.152344 81.839844 "/>
<path style="fill:none;stroke-width:1.2;stroke-linecap:butt;stroke-linejoin:miter;stroke:rgb(0%,0%,0%);stroke-opacity:1;stroke-miterlimit:10;" d="M 204.15625 106.871094 L 217.503906 112.5 "/>
<path style="fill:none;stroke-width:1.2;stroke-linecap:butt;stroke-linejoin:miter;stroke:rgb(0%,0%,100%);stroke-opacity:1;stroke-miterlimit:10;" d="M 217.503906 112.5 L 230.855469 118.132812 "/>
<path style="fill:none;stroke-width:1.2;stroke-linecap:butt;stroke-linejoin:miter;stroke:rgb(0%,0%,100%);stroke-opacity:1;stroke-miterlimit:10;" d="M 200.554688 78.117188 L 187.207031 72.488281 "/>
<path style="fill:none;stroke-width:1.2;stroke-linecap:butt;stroke-linejoin:miter;stroke:rgb(0%,0%,0%);stroke-opacity:1;stroke-miterlimit:10;" d="M 187.207031 72.488281 L 173.855469 66.859375 "/>
<path style=" stroke:none;fill-rule:nonzero;fill:rgb(100%,100%,100%);fill-opacity:1;" d="M 196.554688 71.117188 L 205.554688 71.117188 L 205.554688 85.117188 L 196.554688 85.117188 Z M 196.554688 71.117188 "/>
<g style="fill:rgb(0%,0%,100%);fill-opacity:1;">
  <use xlink:href="#glyph0-1" x="196.554688" y="82.255859"/>
</g>
<path style="fill:none;stroke-width:1.2;stroke-linecap:butt;stroke-linejoin:miter;stroke:rgb(0%,0%,0%);stroke-opacity:1;stroke-miterlimit:10;" d="M 173.855469 66.859375 L 162.304688 75.605469 "/>
<path style="fill:none;stroke-width:1.2;stroke-linecap:butt;stroke-linejoin:miter;stroke:rgb(0%,0%,100%);stroke-opacity:1;stroke-miterlimit:10;" d="M 162.304688 75.605469 L 150.757812 84.351562 "/>
<path style="fill:none;stroke-width:1.2;stroke-linecap:butt;stroke-linejoin:miter;stroke:rgb(0%,0%,0%);stroke-opacity:1;stroke-miterlimit:10;" d="M 175.664062 74.042969 L 166.421875 81.039062 "/>
<path style="fill:none;stroke-width:1.2;stroke-linecap:butt;stroke-linejoin:miter;stroke:rgb(0%,0%,100%);stroke-opacity:1;stroke-miterlimit:10;" d="M 166.421875 81.039062 L 157.183594 88.039062 "/>
<path style=" stroke:none;fill-rule:nonzero;fill:rgb(100%,100%,100%);fill-opacity:1;" d="M 146.757812 77.351562 L 155.757812 77.351562 L 155.757812 91.351562 L 146.757812 91.351562 Z M 146.757812 77.351562 "/>
<g style="fill:rgb(0%,0%,100%);fill-opacity:1;">
  <use xlink:href="#glyph0-1" x="146.757812" y="88.490234"/>
</g>
<path style="fill:none;stroke-width:1.2;stroke-linecap:butt;stroke-linejoin:miter;stroke:rgb(0%,0%,100%);stroke-opacity:1;stroke-miterlimit:10;" d="M 230.855469 118.132812 L 232.652344 132.507812 "/>
<path style="fill:none;stroke-width:1.2;stroke-linecap:butt;stroke-linejoin:miter;stroke:rgb(0%,0%,0%);stroke-opacity:1;stroke-miterlimit:10;" d="M 232.652344 132.507812 L 234.453125 146.882812 "/>
<path style=" stroke:none;fill-rule:nonzero;fill:rgb(100%,100%,100%);fill-opacity:1;" d="M 221.855469 111.132812 L 239.855469 111.132812 L 239.855469 125.132812 L 221.855469 125.132812 Z M 221.855469 111.132812 "/>
<g style="fill:rgb(0%,0%,100%);fill-opacity:1;">
  <use xlink:href="#glyph0-1" x="221.855469" y="122.271484"/>
  <use xlink:href="#glyph0-2" x="230.832031" y="122.271484"/>
</g>
<path style="fill:none;stroke-width:1.2;stroke-linecap:butt;stroke-linejoin:miter;stroke:rgb(0%,0%,0%);stroke-opacity:1;stroke-miterlimit:10;" d="M 234.453125 146.882812 L 211.351562 164.375 "/>
<path style="fill:none;stroke-width:1.2;stroke-linecap:butt;stroke-linejoin:miter;stroke:rgb(0%,0%,0%);stroke-opacity:1;stroke-miterlimit:10;" d="M 236.257812 154.070312 L 217.777344 168.0625 "/>
<path style="fill:none;stroke-width:1.2;stroke-linecap:butt;stroke-linejoin:miter;stroke:rgb(0%,0%,0%);stroke-opacity:1;stroke-miterlimit:10;" d="M 261.152344 158.144531 L 234.453125 146.882812 "/>
<path style="fill:none;stroke-width:1.2;stroke-linecap:butt;stroke-linejoin:miter;stroke:rgb(0%,0%,0%);stroke-opacity:1;stroke-miterlimit:10;" d="M 211.351562 164.375 L 214.949219 193.128906 "/>
<path style="fill:none;stroke-width:1.2;stroke-linecap:butt;stroke-linejoin:miter;stroke:rgb(0%,0%,0%);stroke-opacity:1;stroke-miterlimit:10;" d="M 214.949219 193.128906 L 241.648438 204.386719 "/>
<path style="fill:none;stroke-width:1.2;stroke-linecap:butt;stroke-linejoin:miter;stroke:rgb(0%,0%,0%);stroke-opacity:1;stroke-miterlimit:10;" d="M 220.269531 187.972656 L 241.628906 196.980469 "/>
<path style="fill:none;stroke-width:1.2;stroke-linecap:butt;stroke-linejoin:miter;stroke:rgb(0%,0%,0%);stroke-opacity:1;stroke-miterlimit:10;" d="M 241.648438 204.386719 L 264.75 186.894531 "/>
<path style="fill:none;stroke-width:1.2;stroke-linecap:butt;stroke-linejoin:miter;stroke:rgb(0%,0%,0%);stroke-opacity:1;stroke-miterlimit:10;" d="M 241.648438 204.386719 L 243.449219 218.765625 "/>
<path style="fill:none;stroke-width:1.2;stroke-linecap:butt;stroke-linejoin:miter;stroke:rgb(20%,80%,80%);stroke-opacity:1;stroke-miterlimit:10;" d="M 243.449219 218.765625 L 245.246094 233.140625 "/>
<path style="fill:none;stroke-width:1.2;stroke-linecap:butt;stroke-linejoin:miter;stroke:rgb(0%,0%,0%);stroke-opacity:1;stroke-miterlimit:10;" d="M 264.75 186.894531 L 261.152344 158.144531 "/>
<path style="fill:none;stroke-width:1.2;stroke-linecap:butt;stroke-linejoin:miter;stroke:rgb(0%,0%,0%);stroke-opacity:1;stroke-miterlimit:10;" d="M 257.625 184.867188 L 254.746094 161.867188 "/>
<path style=" stroke:none;fill-rule:nonzero;fill:rgb(100%,100%,100%);fill-opacity:1;" d="M 242.246094 226.140625 L 249.246094 226.140625 L 249.246094 240.140625 L 242.246094 240.140625 Z M 242.246094 226.140625 "/>
<g style="fill:rgb(20%,80%,80%);fill-opacity:1;">
  <use xlink:href="#glyph0-3" x="242.246094" y="237.279297"/>
</g>
</g>
</svg>

<svg xmlns="http://www.w3.org/2000/svg" xmlns:xlink="http://www.w3.org/1999/xlink" width="300pt" height="300pt" viewBox="0 0 300 300"><defs><symbol overflow="visible"><path d="M.594 2.125V-8.47h6V2.126zm.672-.672h4.671V-7.78h-4.67zm0 0"/></symbol><symbol overflow="visible" id="a"><path d="M1.172-8.75h1.594l3.89 7.313V-8.75h1.14V0H6.204L2.328-7.313V0H1.172zm0 0"/></symbol><symbol overflow="visible" id="b"><path d="M1.172-8.75H2.36v3.594h4.296V-8.75h1.188V0H6.656v-4.172H2.36V0H1.17zm0 0"/></symbol><symbol overflow="visible" id="c"><path d="M1.172-8.75h5.03v1H2.36v2.578h3.468v1h-3.47V0H1.173zm0 0"/></symbol></defs><g><path fill="#fff" d="M0 0h300v300H0z"/><path d="M35.25 171.813l13.352 5.628" stroke-width="1.2" stroke="#000" stroke-miterlimit="10" fill="none"/><path d="M48.602 177.44l13.347 5.634M61.95 183.074l1.8 14.375" stroke-width="1.2" stroke="#00f" stroke-miterlimit="10" fill="none"/><path d="M63.75 197.45l1.797 14.374" stroke-width="1.2" stroke="#000" stroke-miterlimit="10" fill="none"/><path d="M61.95 183.074l11.55-8.746" stroke-width="1.2" stroke="#00f" stroke-miterlimit="10" fill="none"/><path d="M73.5 174.328l11.55-8.746" stroke-width="1.2" stroke="#000" stroke-miterlimit="10" fill="none"/><path d="M57.95 176.074h9v14h-9zm0 0" fill="#fff"/><use xlink:href="#a" x="57.949" y="187.213" fill="#00f"/><path d="M85.05 165.582l-3.597-28.754M91.457 161.86l-2.88-23.005M111.75 176.84l-26.7-11.258M81.453 136.828l23.102-17.492M104.555 119.336l26.7 11.262M104.574 126.746l21.36 9.008M131.254 130.598l3.598 28.75M131.254 130.598l23.1-17.493M134.852 159.348L111.75 176.84M128.426 155.664l-18.48 13.992M154.355 113.105l26.7 11.258M159.672 107.95l21.36 9.007" stroke-width="1.2" stroke="#000" stroke-miterlimit="10" fill="none"/><path d="M150.758 84.352l1.797 14.375" stroke-width="1.2" stroke="#00f" stroke-miterlimit="10" fill="none"/><path d="M152.555 98.727l1.8 14.378M181.055 124.363l23.1-17.492M204.156 106.87l-1.8-14.374" stroke-width="1.2" stroke="#000" stroke-miterlimit="10" fill="none"/><path d="M202.355 92.496l-1.8-14.38" stroke-width="1.2" stroke="#00f" stroke-miterlimit="10" fill="none"/><path d="M197.03 104.844l-1.44-11.5" stroke-width="1.2" stroke="#000" stroke-miterlimit="10" fill="none"/><path d="M195.59 93.344l-1.438-11.504" stroke-width="1.2" stroke="#00f" stroke-miterlimit="10" fill="none"/><path d="M204.156 106.87l13.348 5.63" stroke-width="1.2" stroke="#000" stroke-miterlimit="10" fill="none"/><path d="M217.504 112.5l13.35 5.633M200.555 78.117l-13.348-5.63" stroke-width="1.2" stroke="#00f" stroke-miterlimit="10" fill="none"/><path d="M187.207 72.488l-13.352-5.63" stroke-width="1.2" stroke="#000" stroke-miterlimit="10" fill="none"/><path d="M196.555 71.117h9v14h-9zm0 0" fill="#fff"/><use xlink:href="#a" x="196.555" y="82.256" fill="#00f"/><path d="M173.855 66.86l-11.55 8.745" stroke-width="1.2" stroke="#000" stroke-miterlimit="10" fill="none"/><path d="M162.305 75.605l-11.547 8.747" stroke-width="1.2" stroke="#00f" stroke-miterlimit="10" fill="none"/><path d="M175.664 74.043l-9.242 6.996" stroke-width="1.2" stroke="#000" stroke-miterlimit="10" fill="none"/><path d="M166.422 81.04l-9.238 7" stroke-width="1.2" stroke="#00f" stroke-miterlimit="10" fill="none"/><path d="M146.758 77.352h9v14h-9zm0 0" fill="#fff"/><use xlink:href="#a" x="146.758" y="88.49" fill="#00f"/><path d="M230.855 118.133l1.797 14.375" stroke-width="1.2" stroke="#00f" stroke-miterlimit="10" fill="none"/><path d="M232.652 132.508l1.8 14.375" stroke-width="1.2" stroke="#000" stroke-miterlimit="10" fill="none"/><path d="M221.855 111.133h18v14h-18zm0 0" fill="#fff"/><g fill="#00f"><use xlink:href="#a" x="221.855" y="122.271"/><use xlink:href="#b" x="230.832" y="122.271"/></g><path d="M234.453 146.883l-23.1 17.492M236.258 154.07l-18.48 13.993M261.152 158.145l-26.7-11.262M211.352 164.375l3.597 28.754M214.95 193.13l26.698 11.257M220.27 187.973l21.36 9.007M241.648 204.387l23.102-17.492M241.648 204.387l1.8 14.38" stroke-width="1.2" stroke="#000" stroke-miterlimit="10" fill="none"/><path d="M243.45 218.766l1.796 14.375" stroke-width="1.2" stroke="#3cc" stroke-miterlimit="10" fill="none"/><path d="M264.75 186.895l-3.598-28.75M257.625 184.867l-2.88-23" stroke-width="1.2" stroke="#000" stroke-miterlimit="10" fill="none"/><path d="M242.246 226.14h7v14h-7zm0 0" fill="#fff"/><use xlink:href="#c" x="242.246" y="237.279" fill="#3cc"/></g></svg>
